X:908
T:Old Maids of Galway, The
T:Maids of Galway
T:Johnny When I Die
T:Johnny's Gone to France
T:Paddy's Gone to France
R:reel
H:See also #912
Z:id:hn-reel-908
M:C|
L:1/8
K:D
BF~F2 BFAF | E2DE FA~A2 | BF~F2 BFAF | EFDE FDDA |
BF~F2 B2AF | EFDE FAAd | BABc dBAF | E2DE FDD2 ||
dfed B2AB | dfed Be~e2 | dfed BdAF | E2DE FDD2 |
dfed BdAB | dfed Be~e2 | fdec dBAF | EFDE FDDA ||

